public/notion.svg

<svg width="512" height="178" viewBox="0 0 512 178" fill="none" xmlns="http://www.w3.org/2000/svg">
<path d="M109.012 0.404066L10.691 7.66607C2.761 8.35307 0 13.5361 0 19.7481V127.535C0 132.374 1.718 136.514 5.864 142.046L28.975 172.1C32.772 176.94 36.225 177.976 43.475 177.632L157.652 170.72C167.306 170.033 170.072 165.538 170.072 157.938V36.6771C170.072 32.7491 168.521 31.6181 163.954 28.2661L163.166 27.6971L131.786 5.58707C124.193 0.0670657 121.09 -0.632934 109.012 0.404066ZM46.057 34.6921C36.734 35.3201 34.62 35.4621 29.325 31.1561L15.862 20.4471C14.494 19.0611 15.181 17.3321 18.628 16.9881L113.147 10.0821C121.083 9.38907 125.217 12.1551 128.321 14.5721L144.533 26.3171C145.226 26.6671 146.949 28.7341 144.876 28.7341L47.266 34.6091L46.057 34.6921ZM35.188 156.901V53.9601C35.188 49.4641 36.568 47.3901 40.703 47.0411L152.813 40.4791C156.615 40.1351 158.333 42.5521 158.333 47.0411V149.296C158.333 153.791 157.64 157.594 151.433 157.937L44.15 164.157C37.943 164.5 35.188 162.433 35.188 156.901ZM141.091 59.4801C141.778 62.5901 141.091 65.6991 137.981 66.0541L132.811 67.0791V143.083C128.321 145.499 124.187 146.879 120.734 146.879C115.214 146.879 113.834 145.149 109.699 139.973L75.885 86.7731V138.243L86.582 140.666C86.582 140.666 86.582 146.886 77.952 146.886L54.16 148.266C53.467 146.879 54.16 143.426 56.57 142.739L62.784 141.015V72.9601L54.16 72.2621C53.467 69.1521 55.19 64.6621 60.023 64.3121L85.551 62.5951L120.734 116.482V68.8081L111.767 67.7781C111.074 63.9691 113.834 61.2031 117.281 60.8661L141.091 59.4801ZM245.413 125.87V79.0201H246.224L280.009 125.87H290.646V57.0221H278.818V103.825H278.007L244.222 57.0221H233.543V125.864H245.419L245.413 125.87ZM324.076 126.925C339.683 126.925 349.177 116.713 349.177 99.7741C349.177 82.8811 339.635 72.6231 324.076 72.6231C308.569 72.6231 298.98 82.9291 298.98 99.7731C298.98 116.713 308.427 126.925 324.076 126.925ZM324.076 116.998C315.825 116.998 311.104 110.702 311.104 99.7741C311.104 88.8941 315.825 82.5501 324.076 82.5501C332.285 82.5501 337.006 88.8931 337.006 99.7741C337.006 110.702 332.332 116.998 324.076 116.998ZM359.986 60.8891V74.0091H351.736V83.4561H359.986V111.94C359.986 122.056 364.761 126.113 376.736 126.113C379.023 126.113 381.221 125.876 382.938 125.539V116.281C381.505 116.423 380.598 116.518 378.928 116.518C373.971 116.518 371.773 114.232 371.773 109.078V83.4571H382.938V74.0101H371.773V60.8831H359.987L359.986 60.8891ZM390.028 125.87H401.815V73.6711H390.028V125.87ZM395.898 65.0411C399.807 65.0411 402.958 61.8841 402.958 57.9281C402.958 53.9651 399.813 50.7671 395.898 50.7671C392.036 50.7671 388.838 53.9651 388.838 57.9271C388.838 61.8841 392.036 65.0351 395.898 65.0351V65.0411ZM434.148 126.925C449.749 126.925 459.244 116.713 459.244 99.7741C459.244 82.8811 449.702 72.6231 434.148 72.6231C418.636 72.6231 409.047 82.9291 409.047 99.7731C409.047 116.713 418.494 126.925 434.148 126.925ZM434.148 116.998C425.892 116.998 421.165 110.702 421.165 99.7741C421.165 88.8941 425.892 82.5501 434.148 82.5501C442.352 82.5501 447.078 88.8931 447.078 99.7741C447.078 110.702 442.399 116.998 434.148 116.998ZM466.286 125.87H478.121V95.4801C478.121 87.7971 482.563 82.9291 489.617 82.9291C496.825 82.9291 500.16 86.9391 500.16 94.9051V125.87H512V92.0921C512 79.6361 505.65 72.6221 494.012 72.6221C486.229 72.6221 480.982 76.2001 478.5 82.0221H477.688V73.6721H466.286V125.87Z" fill="white"/>
</svg>

<svg xmlns="http://www.w3.org/2000/svg" width="512" height="178" fill="none"><path fill="#fff" d="M109.012.404 10.691 7.666C2.761 8.353 0 13.536 0 19.748v107.787c0 4.839 1.718 8.979 5.864 14.511L28.975 172.1c3.797 4.84 7.25 5.876 14.5 5.532l114.177-6.912c9.654-.687 12.42-5.182 12.42-12.782V36.678c0-3.929-1.551-5.06-6.118-8.412l-.788-.569-31.38-22.11C124.193.067 121.09-.633 109.012.404M46.057 34.692c-9.323.628-11.437.77-16.732-3.536L15.862 20.447c-1.368-1.386-.681-3.115 2.766-3.459l94.519-6.906c7.936-.693 12.07 2.073 15.174 4.49l16.212 11.745c.693.35 2.416 2.417.343 2.417l-97.61 5.875zM35.188 156.901V53.961c0-4.497 1.38-6.57 5.515-6.92l112.11-6.562c3.802-.344 5.52 2.073 5.52 6.562v102.255c0 4.495-.693 8.298-6.9 8.641l-107.283 6.22c-6.207.343-8.962-1.724-8.962-7.256m105.903-97.42c.687 3.11 0 6.218-3.11 6.573l-5.17 1.025v76.004c-4.49 2.416-8.624 3.796-12.077 3.796-5.52 0-6.9-1.73-11.035-6.906l-33.814-53.2v51.47l10.697 2.423s0 6.22-8.63 6.22l-23.792 1.38c-.693-1.387 0-4.84 2.41-5.527l6.214-1.724V72.96l-8.624-.698c-.693-3.11 1.03-7.6 5.863-7.95l25.528-1.717 35.183 53.887V68.808l-8.967-1.03c-.693-3.809 2.067-6.575 5.514-6.912zm104.322 66.389V79.02h.811l33.785 46.85h10.637V57.022h-11.828v46.803h-.811l-33.785-46.803h-10.679v68.842h11.876zm78.663 1.055c15.607 0 25.101-10.212 25.101-27.15 0-16.894-9.542-27.152-25.101-27.152-15.507 0-25.096 10.306-25.096 27.15 0 16.94 9.447 27.152 25.096 27.152m0-9.927c-8.251 0-12.972-6.296-12.972-17.224 0-10.88 4.721-17.224 12.972-17.224 8.209 0 12.93 6.343 12.93 17.224 0 10.928-4.674 17.224-12.93 17.224m35.91-56.109v13.12h-8.25v9.447h8.25v28.484c0 10.116 4.775 14.173 16.75 14.173 2.287 0 4.485-.237 6.202-.574v-9.258c-1.433.142-2.34.237-4.01.237-4.957 0-7.155-2.286-7.155-7.44v-25.62h11.165V74.01h-11.165V60.883h-11.786zm30.042 64.981h11.787V73.671h-11.787zm5.87-60.829c3.909 0 7.06-3.157 7.06-7.113 0-3.963-3.145-7.16-7.06-7.16-3.862 0-7.06 3.197-7.06 7.16 0 3.956 3.198 7.107 7.06 7.107zm38.25 61.884c15.601 0 25.096-10.212 25.096-27.15 0-16.894-9.542-27.152-25.096-27.152-15.512 0-25.101 10.306-25.101 27.15 0 16.94 9.447 27.152 25.101 27.152m0-9.927c-8.256 0-12.983-6.296-12.983-17.224 0-10.88 4.727-17.224 12.983-17.224 8.204 0 12.93 6.343 12.93 17.224 0 10.928-4.679 17.224-12.93 17.224m32.138 8.872h11.835V95.48c0-7.683 4.442-12.55 11.496-12.55 7.208 0 10.543 4.01 10.543 11.975v30.965H512V92.092c0-12.456-6.35-19.47-17.988-19.47-7.783 0-13.03 3.578-15.512 9.4h-.812v-8.35h-11.402z"/></svg>
